X: 88
T: Teetolaler's Reel
T: Temperance Reel
B: NEFR #88
B: Ryan 1883
R: reel
B: Ryan’s Mammoth Collection, 1883
Z: 1997 by John Chambers <jc:trillian.mit.edu>
M: C|
L: 1/8
K: G
|: "G"G2 GF GA Bc | dB ge dB Ac | "Em"BE ED EF GA | "D7"BG AF GF ED |
|  "G"DG GF GA Bc | dB ge dB Ac | "Em"BE ED EF GA | "D7"Bd AF "G"G4 :|
| "Em"Be ed e3  f | ge af gf ed | "D"Bd d^c d3 e  |     fd af gf ed  |
|:"Em"Be ed e3  f | ge af gf ed | "Em"BE ED EF GA | "D7"Bd AF "G"G4 :|
